public/payments/common/klarna.svg

<svg width="97" height="54" viewBox="0 0 97 54" fill="none" xmlns="http://www.w3.org/2000/svg">
<g clip-path="url(#clip0_268_344)">
<path d="M87.6858 0H9.31416C4.17009 0 0 4.17869 0 9.33336V44.6666C0 49.8213 4.17009 54 9.31416 54H87.6858C92.8299 54 97 49.8213 97 44.6666V9.33336C97 4.17869 92.8299 0 87.6858 0Z" fill="#0A0B09"/>
<path d="M87.9329 31.636C86.6638 31.636 85.6351 32.6762 85.6351 33.9595C85.6351 35.2426 86.6638 36.2831 87.9329 36.2831C89.202 36.2831 90.231 35.2426 90.231 33.9595C90.231 32.6762 89.202 31.636 87.9329 31.636ZM80.3727 29.8396C80.3727 28.0827 78.8876 26.6588 77.0555 26.6588C75.2235 26.6588 73.7382 28.0828 73.7382 29.8396C73.7382 31.5966 75.2233 33.0209 77.0555 33.0209C78.8878 33.0209 80.3727 31.5966 80.3727 29.8396ZM80.3851 23.6573H84.0461V36.0216H80.3851V35.2313C79.3508 35.9446 78.1023 36.3639 76.7557 36.3639C73.1924 36.3639 70.3035 33.4429 70.3035 29.8396C70.3035 26.2363 73.1924 23.3155 76.7557 23.3155C78.1023 23.3155 79.3508 23.7348 80.3851 24.4482V23.6573ZM51.0867 25.2678V23.6575H47.3384V36.0215H51.0952V30.2489C51.0952 28.3013 53.1828 27.2545 54.6313 27.2545C54.6462 27.2545 54.66 27.256 54.6749 27.2561V23.6584C53.1881 23.6584 51.8207 24.3019 51.0867 25.2678ZM41.7497 29.8397C41.7497 28.0828 40.2645 26.6589 38.4323 26.6589C36.6003 26.6589 35.1149 28.0829 35.1149 29.8397C35.1149 31.5966 36.6002 33.0209 38.4323 33.0209C40.2645 33.0209 41.7497 31.5966 41.7497 29.8397ZM41.7618 23.6573H45.4231V36.0216H41.7618V35.2314C40.7276 35.9446 39.4791 36.3639 38.1328 36.3639C34.5692 36.3639 31.6803 33.4429 31.6803 29.8396C31.6803 26.2363 34.5692 23.3156 38.1328 23.3156C39.4792 23.3156 40.7276 23.7348 41.7618 24.4483V23.6573ZM63.7981 23.3248C62.3356 23.3248 60.9515 23.7839 60.0261 25.0505V23.6581H56.3808V36.0217H60.0709V29.5242C60.0709 27.644 61.3178 26.7233 62.8193 26.7233C64.4283 26.7233 65.3533 27.6952 65.3533 29.4987V36.0217H69.01V28.1591C69.01 25.2817 66.7475 23.3248 63.7981 23.3248ZM26.3475 36.0217H30.1794V18.1475H26.3475V36.0217ZM9.51453 36.0266H13.5721V18.1441H9.51453V36.0266ZM23.7067 18.1441C23.7067 22.0155 22.2147 25.6169 19.556 28.2938L25.1647 36.0272H20.1531L14.0576 27.6227L15.6307 26.4314C18.2396 24.4553 19.736 21.4349 19.736 18.1441L23.7067 18.1441Z" fill="white"/>
</g>
<defs>
<clipPath id="clip0_268_344">
<rect width="97" height="54" fill="white"/>
</clipPath>
</defs>
</svg>

<svg xmlns="http://www.w3.org/2000/svg" width="97" height="54" fill="none"><g clip-path="url(#a)"><path fill="#0A0B09" d="M87.69 0H9.3A9.32 9.32 0 0 0 0 9.33v35.34A9.32 9.32 0 0 0 9.31 54H87.7A9.32 9.32 0 0 0 97 44.67V9.33A9.32 9.32 0 0 0 87.69 0Z"/><path fill="#fff" d="M87.93 31.64a2.31 2.31 0 0 0-2.3 2.32 2.31 2.31 0 0 0 2.3 2.32c1.27 0 2.3-1.04 2.3-2.32a2.31 2.31 0 0 0-2.3-2.32Zm-7.56-1.8a3.25 3.25 0 0 0-3.31-3.18 3.25 3.25 0 0 0-3.32 3.18 3.25 3.25 0 0 0 3.32 3.18 3.25 3.25 0 0 0 3.31-3.18Zm.02-6.18h3.66v12.36h-3.66v-.79a6.37 6.37 0 0 1-3.63 1.13 6.49 6.49 0 0 1-6.46-6.52c0-3.6 2.9-6.52 6.46-6.52 1.34 0 2.6.41 3.63 1.13v-.8Zm-29.3 1.6v-1.6h-3.75v12.36h3.76v-5.77c0-1.95 2.08-3 3.53-3h.04v-3.6c-1.48 0-2.85.65-3.58 1.62Zm-9.34 4.58a3.25 3.25 0 0 0-3.32-3.18 3.25 3.25 0 0 0-3.32 3.18 3.25 3.25 0 0 0 3.32 3.18 3.25 3.25 0 0 0 3.32-3.18Zm.01-6.18h3.66v12.36h-3.66v-.79a6.37 6.37 0 0 1-3.63 1.13 6.49 6.49 0 0 1-6.45-6.52c0-3.6 2.89-6.52 6.45-6.52 1.35 0 2.6.41 3.63 1.13v-.8Zm22.04-.34c-1.46 0-2.85.46-3.77 1.73v-1.4h-3.65v12.37h3.7v-6.5c0-1.88 1.24-2.8 2.74-2.8 1.6 0 2.53.98 2.53 2.78v6.52h3.66v-7.86c0-2.88-2.26-4.84-5.21-4.84Zm-37.45 12.7h3.83V18.15h-3.83v17.87Zm-16.84 0h4.06V18.15H9.51v17.89Zm14.2-17.88c0 3.88-1.5 7.48-4.15 10.15l5.6 7.74h-5l-6.1-8.4 1.57-1.2c2.61-1.97 4.1-5 4.1-8.29h3.98Z"/></g><defs><clipPath id="a"><path fill="#fff" d="M0 0h97v54H0z"/></clipPath></defs></svg>
